lib/logotmp/nrk-logo-nrk-nordland-with-bg.svg

<svg width="123" height="24" viewBox="0 0 123 24" fill="none" xmlns="http://www.w3.org/2000/svg">
<rect width="123" height="24" fill="#1767CE"/>
<path d="M6 17.9975V5.99859H10V17.9975H6ZM15.2438 7.90828L17.5081 17.9975H13.1992L10.4955 5.99859H12.9122C13.4663 5.9914 14.0041 6.18675 14.4245 6.54789C14.8456 6.89388 15.0849 7.37419 15.2438 7.90828ZM18 17.9975V5.99859H22V17.9975H18ZM25.0105 10.5616C24.5862 10.5657 24.1687 10.4547 23.8025 10.2405C23.4412 10.0316 23.1411 9.73146 22.9323 9.37009C22.7178 9.00383 22.6068 8.58626 22.611 8.16181C22.6061 7.73996 22.7172 7.32488 22.9323 6.96192C23.1433 6.60449 23.4431 6.30759 23.8025 6.10002C24.1689 5.886 24.5862 5.77501 25.0105 5.77888C25.4322 5.77434 25.8471 5.88543 26.2102 6.10002C26.566 6.30941 26.8626 6.60606 27.072 6.96192C27.2868 7.32498 27.3979 7.73999 27.3933 8.16181C27.3973 8.58622 27.2863 9.00372 27.072 9.37009C26.8649 9.72987 26.5679 10.0298 26.2102 10.2405C25.8471 10.4555 25.4324 10.5666 25.0105 10.5616ZM28 17.9975V5.99859H32V17.9975H28ZM36.9737 12.5557C36.9848 12.5674 37.0693 12.7054 37.2272 12.9698C37.3851 13.2342 37.5906 13.5722 37.8439 13.9838C38.0974 14.3952 38.3649 14.8318 38.6463 15.2935C38.9278 15.7552 39.1926 16.1919 39.4408 16.6033C39.6881 17.0147 39.9697 17.4794 40.2857 17.9975H35.9598C35.6893 17.5581 35.4441 17.161 35.2245 16.8061C35.0048 16.4512 34.7713 16.0681 34.5238 15.6569C34.2758 15.246 34.0306 14.846 33.7882 14.457C33.5458 14.0679 33.3375 13.7271 33.1633 13.4346C32.9883 13.1418 32.8671 12.9446 32.7997 12.843C32.6325 12.5909 32.5336 12.2998 32.5127 11.998C32.5294 11.7084 32.6226 11.4285 32.7828 11.1866C32.8503 11.0739 32.9743 10.8739 33.1545 10.5866C33.3348 10.2993 33.546 9.95855 33.7882 9.56422C34.0304 9.16989 34.2756 8.7671 34.5238 8.35587C34.772 7.94464 35.0055 7.55873 35.2245 7.1982C35.4445 6.83805 35.6897 6.43808 35.9598 5.99831H40.2857L36.9396 11.457C36.8361 11.6191 36.7777 11.8058 36.7706 11.998C36.7818 12.1998 36.8528 12.3938 36.9737 12.5557Z" fill="white"/>
<g clip-path="url(#clip0_5918_1693)">
<path d="M53.5458 15.1278L46.368 6.005H45V17.9961H46.5876V8.86766L53.7822 17.9961H55.1502V6.005H53.5458V15.1278ZM65.4693 11.2659C65.8184 11.9246 65.9929 12.6986 65.9929 13.5881C65.9929 14.5226 65.8043 15.3333 65.4271 16.0201C65.0499 16.7069 64.5236 17.2361 63.848 17.6077C63.1724 17.9792 62.3956 18.165 61.5173 18.165C60.6391 18.165 59.9298 17.9905 59.288 17.6414C58.6462 17.2924 58.1536 16.7829 57.8102 16.113C57.4668 15.4431 57.2951 14.6465 57.2951 13.7232C57.2951 12.8 57.4781 12.0006 57.844 11.325C58.2099 10.6494 58.7222 10.1259 59.3809 9.75433C60.0396 9.38277 60.808 9.197 61.6862 9.197C62.5644 9.197 63.3273 9.37714 63.9747 9.73744C64.6221 10.0977 65.1203 10.6072 65.4693 11.2659ZM64.2027 13.6219C64.2027 13.1603 64.152 12.7408 64.0507 12.3637C63.9493 11.9865 63.7945 11.6628 63.5862 11.3926C63.3779 11.1223 63.119 10.9168 62.8093 10.7761C62.4997 10.6354 62.131 10.565 61.7031 10.565C61.1627 10.565 60.6982 10.6776 60.3098 10.9028C59.9213 11.128 59.6201 11.4657 59.4062 11.9161C59.1923 12.3665 59.0853 12.9351 59.0853 13.6219C59.0853 14.3087 59.1923 14.9054 59.4062 15.3783C59.6201 15.8512 59.9129 16.2059 60.2844 16.4423C60.656 16.6788 61.0951 16.797 61.6018 16.797C62.1084 16.797 62.5588 16.6816 62.9529 16.4508C63.347 16.22 63.6538 15.8681 63.8733 15.3952C64.0929 14.9223 64.2027 14.3312 64.2027 13.6219ZM71.6169 9.32366C71.3016 9.40811 71.0033 9.53759 70.7218 9.71211C70.4403 9.88662 70.1757 10.0977 69.928 10.3454C69.8886 10.3848 69.8492 10.4299 69.8098 10.4721V9.21388L68.0871 9.46722V17.9961H69.8098V11.6149C69.9393 11.5248 70.0716 11.4404 70.2067 11.3672C70.3812 11.2715 70.5557 11.1899 70.7302 11.1223C70.9047 11.0548 71.0821 10.9957 71.2622 10.945C71.4424 10.8943 71.631 10.8577 71.828 10.8352C72.025 10.8127 72.2305 10.8071 72.4444 10.8183L72.6471 9.23077C72.2756 9.20825 71.9321 9.23922 71.6169 9.32366ZM79.7911 5.49833L81.5138 5.26188V17.9961H80.112L79.9009 17.2164C79.7742 17.3093 79.6476 17.3966 79.5209 17.4726C79.1381 17.709 78.7468 17.8835 78.3471 17.9961C77.9474 18.1087 77.5224 18.165 77.072 18.165C76.2951 18.165 75.628 17.9933 75.0707 17.6499C74.5133 17.3065 74.0855 16.8195 73.7871 16.189C73.4887 15.5585 73.3396 14.8097 73.3396 13.9428C73.3396 12.9294 73.5366 12.0709 73.9307 11.3672C74.3247 10.6635 74.8455 10.1259 75.4929 9.75433C76.1403 9.38277 76.8412 9.197 77.5956 9.197C78.0234 9.197 78.4147 9.23359 78.7693 9.30677C79.124 9.37996 79.4477 9.47285 79.7404 9.58544C79.7573 9.59107 79.7742 9.59951 79.7911 9.60796V5.49833ZM79.7911 16.1074V10.9028C79.7038 10.8718 79.611 10.8352 79.5293 10.8099C79.2647 10.7254 79.003 10.6635 78.744 10.6241C78.485 10.5847 78.2148 10.565 77.9333 10.565C77.3479 10.565 76.844 10.686 76.4218 10.9281C75.9996 11.1702 75.6759 11.5248 75.4507 11.9921C75.2255 12.4594 75.1129 13.042 75.1129 13.7401C75.1129 14.4382 75.2142 14.9983 75.4169 15.4543C75.6196 15.9103 75.9123 16.2481 76.2951 16.4677C76.6779 16.6872 77.1396 16.797 77.68 16.797C78.0403 16.797 78.4428 16.7154 78.8876 16.5521C79.1719 16.448 79.473 16.296 79.7911 16.1074ZM86.8084 16.7548C86.7578 16.7604 86.6987 16.7632 86.6311 16.7632C86.4847 16.7632 86.3609 16.7407 86.2596 16.6957C86.1582 16.6506 86.0738 16.5803 86.0062 16.4846C85.9387 16.3888 85.8908 16.2678 85.8627 16.1214C85.8345 15.9751 85.8204 15.8006 85.8204 15.5979V5.245L84.0978 5.49833V16.3579C84.0978 16.6844 84.1428 16.9631 84.2329 17.1939C84.323 17.4247 84.4524 17.6133 84.6213 17.7597C84.7902 17.906 84.9901 18.0102 85.2209 18.0721C85.4517 18.134 85.7022 18.165 85.9724 18.165C86.1076 18.165 86.237 18.1594 86.3609 18.1481C86.4847 18.1368 86.6058 18.12 86.724 18.0974C86.8422 18.0749 86.9407 18.0524 87.0196 18.0299L87.1884 16.6957C87.1209 16.7069 87.0533 16.7182 86.9858 16.7294C86.9182 16.7407 86.8591 16.7491 86.8084 16.7548ZM96.4604 16.9152C96.5505 16.904 96.6462 16.8814 96.7476 16.8477L96.5618 17.9792C96.5055 18.0017 96.4407 18.0214 96.3676 18.0383C96.2944 18.0552 96.2127 18.0749 96.1227 18.0974C96.0326 18.12 95.9397 18.134 95.844 18.1397C95.7483 18.1453 95.6498 18.1481 95.5484 18.1481C95.1881 18.1481 94.8673 18.089 94.5858 17.9708C94.3043 17.8526 94.0847 17.6611 93.9271 17.3966C93.8427 17.2558 93.7836 17.0897 93.7441 16.8983C93.6372 17.0222 93.5274 17.1432 93.412 17.253C93.1024 17.5457 92.7477 17.7709 92.348 17.9286C91.9483 18.0862 91.4726 18.165 90.9209 18.165C90.3241 18.165 89.8259 18.0524 89.4262 17.8272C89.0265 17.602 88.7281 17.3065 88.5311 16.9405C88.3341 16.5746 88.2356 16.1777 88.2356 15.7499C88.2356 15.2995 88.3622 14.8857 88.6156 14.5086C88.8689 14.1314 89.2545 13.8189 89.7724 13.5712C90.2904 13.3235 90.9434 13.1771 91.7316 13.1321L93.7047 12.9998V12.5748C93.7047 12.2483 93.6738 11.964 93.6062 11.7219C93.5387 11.4798 93.4261 11.28 93.2684 11.1223C93.1108 10.9647 92.8941 10.8465 92.6182 10.7677C92.3424 10.6888 92.0018 10.6494 91.5964 10.6494C91.3713 10.6494 91.1433 10.6579 90.9124 10.6748C90.6816 10.6917 90.448 10.7226 90.2116 10.7677C89.9751 10.8127 89.7302 10.869 89.4769 10.9366C89.2236 11.0041 88.9561 11.0886 88.6747 11.1899L88.8773 9.75433C89.1588 9.64174 89.4544 9.54322 89.764 9.45877C90.0736 9.37433 90.403 9.30959 90.752 9.26455C91.101 9.21951 91.4557 9.197 91.816 9.197C92.3114 9.197 92.7561 9.24203 93.1502 9.33211C93.5443 9.42218 93.8849 9.55166 94.172 9.72055C94.4591 9.88944 94.6927 10.0977 94.8729 10.3454C95.053 10.5931 95.1881 10.8803 95.2782 11.2068C95.3683 11.5333 95.4133 11.8936 95.4133 12.2877L95.3796 15.7668C95.3683 16.1834 95.4302 16.4817 95.5653 16.6619C95.7004 16.842 95.92 16.9321 96.224 16.9321C96.2916 16.9321 96.3704 16.9265 96.4604 16.9152ZM93.6935 15.9075L93.7019 14.2299H92.2241C91.6724 14.2299 91.2333 14.2749 90.9068 14.365C90.5803 14.4551 90.3439 14.5958 90.1975 14.7872C90.0511 14.9786 89.9779 15.2432 89.9779 15.581C89.9779 15.84 90.0342 16.0623 90.1468 16.2481C90.2594 16.4339 90.4255 16.5774 90.645 16.6788C90.8646 16.7801 91.132 16.8308 91.4473 16.8308C91.695 16.8308 91.9342 16.8083 92.165 16.7632C92.3959 16.7182 92.6154 16.645 92.8237 16.5437C93.032 16.4423 93.229 16.3185 93.4148 16.1721C93.5133 16.0933 93.6062 16.0032 93.6963 15.9075H93.6935ZM104.972 9.55166C104.545 9.31522 104.004 9.197 103.351 9.197C102.867 9.197 102.386 9.27299 101.907 9.42499C101.429 9.57699 100.975 9.79374 100.548 10.0752C100.384 10.1822 100.227 10.3004 100.075 10.4214V9.21388L98.352 9.46722V17.9961H100.075V11.5811C100.241 11.4854 100.41 11.3954 100.59 11.3166C100.832 11.2096 101.074 11.1167 101.316 11.0379C101.558 10.9591 101.8 10.9 102.042 10.8606C102.284 10.8211 102.518 10.8014 102.743 10.8014C103.058 10.8014 103.329 10.8437 103.554 10.9281C103.779 11.0126 103.965 11.1392 104.111 11.3081C104.257 11.477 104.364 11.6909 104.432 11.9499C104.5 12.2088 104.533 12.5128 104.533 12.8619V17.9961H106.256V12.5072C106.256 11.7416 106.149 11.1167 105.935 10.6326C105.721 10.1484 105.4 9.78811 104.972 9.55166ZM116.44 5.26188V17.9961H115.038L114.827 17.2164C114.7 17.3093 114.574 17.3966 114.447 17.4726C114.064 17.709 113.673 17.8835 113.273 17.9961C112.874 18.1087 112.449 18.165 111.998 18.165C111.221 18.165 110.554 17.9933 109.997 17.6499C109.44 17.3065 109.012 16.8195 108.713 16.189C108.415 15.5585 108.266 14.8097 108.266 13.9428C108.266 12.9294 108.463 12.0709 108.857 11.3672C109.251 10.6635 109.772 10.1259 110.419 9.75433C111.067 9.38277 111.767 9.197 112.522 9.197C112.95 9.197 113.341 9.23359 113.696 9.30677C114.05 9.37996 114.374 9.47285 114.667 9.58544C114.684 9.59107 114.7 9.59951 114.717 9.60796V5.49833L116.44 5.26188ZM114.717 16.1074V10.9028C114.63 10.8718 114.537 10.8352 114.456 10.8099C114.191 10.7254 113.929 10.6635 113.67 10.6241C113.411 10.5847 113.141 10.565 112.86 10.565C112.274 10.565 111.77 10.686 111.348 10.9281C110.926 11.1702 110.602 11.5248 110.377 11.9921C110.152 12.4594 110.039 13.042 110.039 13.7401C110.039 14.4382 110.14 14.9983 110.343 15.4543C110.546 15.9103 110.839 16.2481 111.221 16.4677C111.604 16.6872 112.066 16.797 112.606 16.797C112.967 16.797 113.369 16.7154 113.814 16.5521C114.098 16.448 114.399 16.296 114.717 16.1074Z" fill="#D4EEFC"/>
</g>
<defs>
<clipPath id="clip0_5918_1693">
<rect width="72" height="14" fill="white" transform="translate(45 5)"/>
</clipPath>
</defs>
</svg>

<svg xmlns="http://www.w3.org/2000/svg" viewBox="0 0 123 24"><path fill="#1767CE" d="M0 0h123v24H0z"/><path fill="#fff" d="M6 17.997V6h4v11.998H6Zm9.244-10.089 2.264 10.09H13.2l-2.704-12h2.417a2.276 2.276 0 0 1 1.512.55c.422.346.66.826.82 1.36ZM18 17.998v-12h4v12h-4Zm7.01-7.436a2.382 2.382 0 0 1-2.4-2.4 2.301 2.301 0 0 1 .322-1.2A2.41 2.41 0 0 1 26.21 6.1c.356.21.653.506.862.862.215.363.326.778.321 1.2a2.35 2.35 0 0 1-.321 1.208 2.4 2.4 0 0 1-.862.87 2.3 2.3 0 0 1-1.2.322ZM28 17.997V6h4v11.998h-4Zm8.974-5.441c.01.011.095.15.253.414s.364.602.617 1.014a315.936 315.936 0 0 1 1.597 2.62c.247.41.529.875.845 1.393H35.96c-.27-.439-.516-.836-.736-1.19-.22-.356-.453-.739-.7-1.15-.248-.411-.493-.811-.736-1.2-.242-.39-.45-.73-.625-1.022-.175-.293-.296-.49-.363-.592a1.747 1.747 0 0 1-.287-.845c.016-.29.11-.57.27-.811.067-.113.191-.313.371-.6a182.106 182.106 0 0 0 1.37-2.23l.7-1.159.736-1.2h4.326l-3.346 5.459a1.08 1.08 0 0 0-.17.541c.012.202.083.396.204.558Z"/><g clip-path="url(#a)"><path fill="#D4EEFC" d="m53.546 15.128-7.178-9.123H45v11.991h1.588V8.868l7.194 9.128h1.368V6.005h-1.604v9.123Zm11.923-3.862c.35.659.524 1.433.524 2.322 0 .935-.189 1.745-.566 2.432a3.934 3.934 0 0 1-1.579 1.588c-.676.371-1.452.557-2.33.557-.879 0-1.588-.174-2.23-.524a3.525 3.525 0 0 1-1.478-1.528c-.343-.67-.515-1.466-.515-2.39 0-.923.183-1.722.549-2.398.366-.676.878-1.2 1.537-1.57.659-.372 1.427-.558 2.305-.558.878 0 1.641.18 2.289.54.647.36 1.145.87 1.494 1.529Zm-1.266 2.356c0-.462-.051-.881-.152-1.258a2.732 2.732 0 0 0-.465-.971 2.023 2.023 0 0 0-.777-.617c-.31-.14-.678-.211-1.106-.211-.54 0-1.005.113-1.393.338-.389.225-.69.563-.904 1.013-.214.45-.32 1.02-.32 1.706 0 .687.106 1.283.32 1.756.214.473.507.828.878 1.064.372.237.811.355 1.318.355.506 0 .957-.115 1.35-.346.395-.231.702-.583.921-1.056.22-.473.33-1.064.33-1.773Zm7.414-4.298a3.321 3.321 0 0 0-.895.388 4.404 4.404 0 0 0-.794.633c-.04.04-.079.085-.118.127V9.214l-1.723.253v8.53h1.723v-6.382a4.22 4.22 0 0 1 .92-.493c.175-.067.352-.126.532-.177a3.59 3.59 0 0 1 1.182-.127l.203-1.587a3.214 3.214 0 0 0-1.03.093Zm8.174-3.826 1.723-.236v12.734h-1.402l-.211-.78c-.127.093-.253.18-.38.257-.383.236-.774.41-1.174.523-.4.113-.825.169-1.275.169-.777 0-1.444-.172-2.001-.515a3.353 3.353 0 0 1-1.284-1.461c-.298-.63-.447-1.38-.447-2.246 0-1.014.197-1.872.59-2.576.395-.704.915-1.241 1.563-1.613a4.153 4.153 0 0 1 2.103-.557 5.818 5.818 0 0 1 2.195.411v-4.11Zm0 10.61v-5.205c-.087-.031-.18-.068-.262-.093a5.103 5.103 0 0 0-1.596-.245c-.585 0-1.089.121-1.511.363a2.382 2.382 0 0 0-.971 1.064c-.225.467-.338 1.05-.338 1.748s.101 1.258.304 1.714c.203.456.495.794.878 1.014.383.22.845.329 1.385.329.36 0 .763-.082 1.208-.245.284-.104.585-.256.903-.445Zm7.017.647c-.05.005-.11.008-.177.008a.913.913 0 0 1-.371-.067.61.61 0 0 1-.254-.211.927.927 0 0 1-.143-.364 2.806 2.806 0 0 1-.043-.523V5.245l-1.722.253v10.86c0 .326.045.605.135.836.09.23.22.42.388.566.17.146.37.25.6.312.23.062.481.093.751.093a3.746 3.746 0 0 0 1.047-.135l.17-1.334c-.068.01-.136.022-.203.033-.068.012-.127.02-.178.026Zm9.652.16c.09-.011.186-.034.288-.067l-.186 1.131a1.338 1.338 0 0 1-.194.06 14.04 14.04 0 0 0-.245.058c-.09.023-.183.037-.279.043a5.061 5.061 0 0 1-.296.008c-.36 0-.68-.059-.962-.177a1.364 1.364 0 0 1-.659-.574 1.584 1.584 0 0 1-.183-.499 4.97 4.97 0 0 1-.332.355c-.31.293-.664.518-1.064.676-.4.157-.875.236-1.427.236-.597 0-1.095-.113-1.495-.338-.4-.225-.698-.52-.895-.887a2.472 2.472 0 0 1-.295-1.19c0-.45.126-.864.38-1.241.253-.378.638-.69 1.156-.938.518-.248 1.171-.394 1.96-.439L93.705 13v-.425c0-.327-.031-.611-.099-.853a1.337 1.337 0 0 0-.338-.6c-.157-.157-.374-.275-.65-.354a3.77 3.77 0 0 0-1.022-.119 9.37 9.37 0 0 0-.684.026c-.23.017-.464.048-.7.093a10.372 10.372 0 0 0-1.537.422l.202-1.436c.282-.112.577-.21.887-.295.31-.085.639-.15.988-.194a8.305 8.305 0 0 1 1.064-.068c.495 0 .94.045 1.334.135.394.09.735.22 1.022.389.287.168.52.377.7.624.181.248.316.535.406.862.09.326.135.687.135 1.08l-.033 3.48c-.012.416.05.715.185.895.135.18.355.27.659.27.068 0 .146-.005.236-.017Zm-2.766-1.007.008-1.678h-1.478c-.552 0-.99.045-1.317.135-.327.09-.563.23-.71.422-.146.192-.22.456-.22.794 0 .259.057.481.17.667.112.186.278.33.498.43.22.102.487.153.802.153.248 0 .487-.023.718-.068.23-.045.45-.118.659-.22a2.757 2.757 0 0 0 .873-.636h-.004Zm11.278-6.356c-.427-.237-.968-.355-1.621-.355-.484 0-.965.076-1.444.228a5.477 5.477 0 0 0-1.359.65 6.233 6.233 0 0 0-.473.346V9.214l-1.723.253v8.53h1.723V11.58c.166-.096.335-.186.515-.264.242-.107.484-.2.726-.28a4.87 4.87 0 0 1 .726-.176c.242-.04.476-.06.701-.06.315 0 .586.043.811.127.225.085.411.211.557.38.146.169.253.383.321.642s.101.563.101.912v5.134h1.723v-5.489c0-.765-.107-1.39-.321-1.874-.214-.485-.535-.845-.963-1.081Zm11.468-4.29v12.734h-1.402l-.211-.78c-.127.093-.253.18-.38.257a4.61 4.61 0 0 1-1.174.523 4.675 4.675 0 0 1-1.275.169c-.777 0-1.444-.172-2.001-.515a3.36 3.36 0 0 1-1.284-1.461c-.298-.63-.447-1.38-.447-2.246 0-1.014.197-1.872.591-2.576.394-.704.915-1.241 1.562-1.613a4.154 4.154 0 0 1 2.103-.557 5.823 5.823 0 0 1 2.145.388c.017.006.033.015.05.023v-4.11l1.723-.236Zm-1.723 10.845v-5.204c-.087-.031-.18-.068-.261-.093a5.122 5.122 0 0 0-1.596-.245c-.586 0-1.09.121-1.512.363a2.381 2.381 0 0 0-.971 1.064c-.225.467-.338 1.05-.338 1.748s.101 1.258.304 1.714c.203.456.496.794.878 1.014.383.22.845.329 1.385.329.361 0 .763-.082 1.208-.245.284-.104.585-.256.903-.445Z"/></g><defs><clipPath id="a"><path fill="#fff" d="M45 5h72v14H45z"/></clipPath></defs></svg>
